img/contacts/icon/gmail.svg

<svg width="48" height="48" viewBox="0 0 48 48" fill="none" xmlns="http://www.w3.org/2000/svg">
<path fill-rule="evenodd" clip-rule="evenodd" d="M13.4234 7.94162C20.4604 7.31243 27.5396 7.31243 34.5767 7.94162L37.6113 8.21296C40.6361 8.48341 43.08 10.7942 43.5193 13.799C44.5083 20.5637 44.5083 27.4362 43.5193 34.2009C43.08 37.2057 40.6361 39.5165 37.6113 39.7869L34.5767 40.0583C27.5396 40.6874 20.4604 40.6874 13.4234 40.0583L10.3887 39.7869C7.36397 39.5165 4.92006 37.2057 4.48075 34.2009C3.49177 27.4362 3.49177 20.5637 4.48075 13.799C4.92006 10.7942 7.36397 8.48341 10.3887 8.21296L13.4234 7.94162ZM11.7111 13.6792C11.2463 13.4289 10.6841 13.4414 10.2308 13.7122C9.77756 13.9829 9.5 14.472 9.5 14.9999V33.9999C9.5 34.8284 10.1716 35.4999 11 35.4999C11.8284 35.4999 12.5 34.8284 12.5 33.9999V17.5113L23.2888 23.3206C23.7328 23.5597 24.2672 23.5597 24.7112 23.3206L35.5 17.5113V33.9999C35.5 34.8284 36.1716 35.4999 37 35.4999C37.8284 35.4999 38.5 34.8284 38.5 33.9999V14.9999C38.5 14.472 38.2224 13.9829 37.7692 13.7122C37.3159 13.4414 36.7537 13.4289 36.2888 13.6792L24 20.2963L11.7111 13.6792Z" fill="#203239"/>
</svg>

<svg xmlns="http://www.w3.org/2000/svg" fill="none" viewBox="0 0 48 48"><path fill="#203239" fill-rule="evenodd" d="M13.423 7.942c7.037-.63 14.117-.63 21.154 0l3.034.271a6.561 6.561 0 0 1 5.908 5.586 70.515 70.515 0 0 1 0 20.402 6.561 6.561 0 0 1-5.908 5.586l-3.034.271c-7.037.63-14.117.63-21.154 0l-3.034-.271A6.561 6.561 0 0 1 4.48 34.2a70.517 70.517 0 0 1 0-20.402 6.561 6.561 0 0 1 5.908-5.586l3.034-.271zm-1.712 5.737A1.5 1.5 0 0 0 9.5 15v19a1.5 1.5 0 1 0 3 0V17.512l10.789 5.81a1.5 1.5 0 0 0 1.422 0L35.5 17.51V34a1.5 1.5 0 1 0 3 0V15a1.5 1.5 0 0 0-2.211-1.32L24 20.295 11.711 13.68z" clip-rule="evenodd"/></svg>
